src/cmd/sc_wraptext.svg

<svg viewBox="0 0 16 16" xmlns="http://www.w3.org/2000/svg"><path d="m2 2v1h12v-1zm0 2v1h7v-1zm0 3v1h6v-1zm0 2v1h4v-1zm0 3v1h8v-1z" fill="#232629"/><path d="m9 7v1h1 .5c1.385 0 2.5 1.115 2.5 2.5 0 .81868-.39551 1.54491-1 2v-1.5h-1v1.9375.0625.9375.0625h1 2v-1h-1.0625c.65797-.6319 1.0625-1.50971 1.0625-2.5 0-1.939-1.561-3.5-3.5-3.5h-.5z" fill="#762572"/></svg>

<?xml version="1.0" encoding="UTF-8" standalone="no"?>
<svg
   xmlns:dc="http://purl.org/dc/elements/1.1/"
   xmlns:cc="http://creativecommons.org/ns#"
   xmlns:rdf="http://www.w3.org/1999/02/22-rdf-syntax-ns#"
   xmlns:svg="http://www.w3.org/2000/svg"
   xmlns="http://www.w3.org/2000/svg"
   xmlns:sodipodi="http://sodipodi.sourceforge.net/DTD/sodipodi-0.dtd"
   xmlns:inkscape="http://www.inkscape.org/namespaces/inkscape"
   viewBox="0 0 16 16"
   version="1.1"
   id="svg6"
   sodipodi:docname="sc_wraptext.svg"
   inkscape:version="0.92.4 (5da689c313, 2019-01-14)">
  <metadata
     id="metadata12">
    <rdf:RDF>
      <cc:Work
         rdf:about="">
        <dc:format>image/svg+xml</dc:format>
        <dc:type
           rdf:resource="http://purl.org/dc/dcmitype/StillImage" />
      </cc:Work>
    </rdf:RDF>
  </metadata>
  <defs
     id="defs10" />
  <sodipodi:namedview
     pagecolor="#ffffff"
     bordercolor="#666666"
     borderopacity="1"
     objecttolerance="10"
     gridtolerance="10"
     guidetolerance="10"
     inkscape:pageopacity="0"
     inkscape:pageshadow="2"
     inkscape:window-width="1920"
     inkscape:window-height="1011"
     id="namedview8"
     showgrid="true"
     inkscape:zoom="29.5"
     inkscape:cx="1.0717587"
     inkscape:cy="9.3496735"
     inkscape:window-x="0"
     inkscape:window-y="32"
     inkscape:window-maximized="1"
     inkscape:current-layer="svg6">
    <inkscape:grid
       type="xygrid"
       id="grid822" />
  </sodipodi:namedview>
  <path
     d="M 2,2 V 3 H 14 V 2 Z M 2,4 V 5 H 14 V 4 Z M 2,7 V 8 H 8 V 7 Z m 0,2 v 1 H 8 V 9 Z m 0,3 v 1 h 8 v -1 z"
     id="path2"
     inkscape:connector-curvature="0"
     style="fill:#232629"
     sodipodi:nodetypes="ccccccccccccccccccccccccc" />
  <path
     d="m9 7v1h1 .5c1.385 0 2.5 1.115 2.5 2.5 0 .81868-.39551 1.54491-1 2v-1.5h-1v1.9375.0625.9375.0625h1 2v-1h-1.0625c.65797-.6319 1.0625-1.50971 1.0625-2.5 0-1.939-1.561-3.5-3.5-3.5h-.5z"
     fill="#762572"
     id="path4" />
</svg>
